!!!COM: Scarlatti, Domenico
!!!CDT: 1685///-1757///
!!!OTL: Sonata in G Major, K.75, L.53
!!!SCT: K. 075
!!!SCT: L. 053
!!!OMD: Allegro
**kern	**kern	**dynam
*staff2	*staff1	*staff1
*Icemba	*Icemba	*Icemba
*>[A,A,B,B]	*>[A,A,B,B]	*>[A,A,B,B]
*>norep[A,B]	*>norep[A,B]	*>norep[A,B]
*>A	*>A	*>A
*clefF4	*clefG2	*clefG2
*k[f#]	*k[f#]	*k[f#]
*G:	*G:	*G:
*M3/4	*M3/4	*M3/4
*MM168	*MM168	*MM168
=1-	=1-	=1-
2G\ 2B\ 2d\	4gg'\	f
.	(4.aa\	.
4F#'\ 4A'\ 4d'\	.	.
.	16gg\LL	.
.	16aa\JJ	.
=2	=2	=2
2G\ 2B\ 2d\	12b\L	.
.	12cc\	.
.	12dd\J	.
.	2gg\)	.
4B'\ 4d'\	.	.
=3	=3	=3
2c\ 2e\	(12a\L	p
.	12b\	.
.	12cc\J	.
.	2ee\)	.
4A'\ 4c'\	.	.
=4	=4	=4
2D\ 2A\ 2d\	(12f#/L	.
.	12g/	.
.	12a/J	.
.	2cc\)	.
4F#'\ 4A'\ 4d'\	.	.
=5	=5	=5
2G\ 2B\	(12d/L	.
.	12e/	.
.	12f#/J	.
.	2b/)	.
4B'\ 4d'\	.	.
=6	=6	=6
(4C/	(12e/L	f
.	12f#/	>
.	12g/J	)
4c'\)	4ee'\)	]
4B'\ 4d'\	4dd'\	p
=7	=7	=7
4r	(12a\L	f
.	12b\	.
.	12cc#\J	.
4c#'\ 4e'\	4gg'\)	.
4d'\ 4f#'\	4ff#'\	p
=8	=8	=8
4r	(12b\L	f
.	12cc#\	.
.	12dd\J	.
4G'\ 4B'\ 4d'\	4bb'\)	.
4F#'\ 4A'\ 4d'\	4aa'\	p
=9	=9	=9
*^	*	*
4d^/	2.E\	(12g#/L	f
.	.	12a/	.
.	.	12b/J	.
4d'/	.	4ffn'\)	.
4cn'/	.	4ee'\	p
=10	=10	=10	=10
(4B/	2.E\	(12g#/L	f
.	.	12a/	.
.	.	12b/J	.
4fn'/)	.	4dd'\)	.
4e'/	.	4cc'\	p
=11	=11	=11	=11
4r	2.E\	(12g#/L	f
.	.	12a/	.
.	.	12b/J	.
4d'/	.	4ffn'\)	.
4c'/	.	4ee'\	p
=12	=12	=12	=12
4r	2.AA\	(12cc#\L	f
.	.	12dd\	.
.	.	12ee\J	.
4G'/	.	4bb-'\)	.
4Fn'/	.	4aa'\	.
=13	=13	=13	=13
(4E/	2.AA\	(12cc#\L	.
.	.	12dd\	.
.	.	12ee\J	.
4B-'/)	.	4gg'\)	.
4A'/	.	4ffn'\	.
=14	=14	=14	=14
4r	2.AA\	(12cc#\L	.
.	.	12dd\	.
.	.	12ee\J	.
4G'/	.	4bb-'\)	.
4Fn'/	.	4aa'\	.
*v	*v	*	*
=15	=15	=15
4AA'^/ 4C#'^/ 4E'^/	(12gg\L	.
.	12ff#\	.
.	12ee\J)	.
4r	(12ee\L	.
.	12dd\	.
.	12cc#\J)	.
4r	(12cc#\L	.
.	12b\	.
.	12a\J	.
=16	=16	=16
2.r	12g/L	.
.	12f#/	.
.	12e/J	.
.	(12e/L)	.
.	12d/	.
.	12c#/J)	.
.	(12c#/L	.
.	12B/	.
.	12A/J)	.
=17	=17	=17
(12G\L	2.r	.
12F#\	.	.
12E\J)	.	.
(12E\L	.	.
12D\	.	.
12C#\J)	.	.
(12C#/L	.	.
12BB/	.	.
12AA/J)	.	.
=18	=18	=18
4AA'\ 4C#'\ 4E'\ 4A'\	(4gg\	.
4C#'\ 4E'\ 4A'\	16ff#\LL	.
.	16ee\JJ	.
.	8ff#\L	.
4D'\ 4F#'\ 4A'\	8ee\	.
.	8dd\J	.
=19	=19	=19
4GG'\ 4D'\ 4G'\	8bb\L)	.
.	(8dd\J	.
4AA'\ 4D'\ 4A'\	4a'\ 4dd'\ 4ff#'\)	.
4AA'\ 4E'\ 4A'\	4a'\ 4cc#'\ 4ee'\	.
=20	=20	=20
2.DD^/ 2.D^/	2.f#^/ 2.a^/ 2.dd^/	.
=21:|!|:	=21:|!|:	=21:|!|:
*>B	*>B	*>B
2D\ 2F#\ 2A\	4dd\	f
.	(4.ee\	.
4C#'\ 4E'\ 4A'\	.	.
.	16dd\LL	.
.	16ee\JJ	.
=22	=22	=22
2D\ 2F#\ 2A\	12ff#\L	.
.	12gg\	.
.	12aa\J	.
.	2ccn\)	.
4F#'\ 4A'\ 4d'\	.	.
=23	=23	=23
2G\ 2B\ 2d\	(12b\L	.
.	12cc\	.
.	12dd\J	.
.	2fn/)	.
4B'\ 4d'\	.	.
=24	=24	=24
(4C/	(12e/L	f
.	12f#/	.
.	12g/J	.
4c'\)	4ee'\)	.
4B'\ 4d'\	4dd'\	p
=25	=25	=25
4r	(12f#/L	p
.	12g/	.
.	12a/J	.
4A'\ 4c'\	4cc'\)	.
4G'\ 4B'\	4b'\	.
=26	=26	=26
4r	(12gg\L	f
.	12aa\	.
.	12bb\J	.
4E'\ 4G'\ 4c#'\	4cc#'\)	.
4F#'\ 4A'\ 4d'\	4dd'\	.
=27	=27	=27
4r	(12g/L	.
.	12a/	.
.	12b/J	.
4G'\ 4A'\	4c#'/)	.
4F#'\ 4A'\	4d/	.
=28	=28	=28
2E\ 2G\	(12cn/L	p
.	12d/	.
.	12e/J	.
.	12f#/L	<
.	12g/	(
.	12a/J)	(
4E'\ 4G'\ 4c'\	(12a/L	(
.	12b/	(
.	12cc/J)	(
=29	=29	=29
4D'\ 4G'\ 4A'\ 4c'\	(12cc\L	(
.	12dd\	(
.	12ee\J	(
4r	12ff#\L	(
.	12gg\	(
.	12aa\J)	(
4r	(12aa\L	(
.	12bb\	(
.	12ccc\J)	[
=30	=30	=30
4D'\ 4G'\ 4A'\ 4c'\	(4.ccc\	f
4D'\ 4F#'\ 4A'\ 4d'\	.	.
.	16bb-\LL	.
.	16aa\JJ	.
4D'\ 4G'\ 4B-'\ 4d'\	12bb-\L	.
.	12aa\	.
.	12gg\J	.
=31	=31	=31
4D'\ 4G'\ 4A'\ 4c'\	12ff#\L	.
.	12gg\	.
.	12aa\J	.
4D'\ 4F#'\ 4A'\ 4d'\	12ee-\L	.
.	12dd\	.
.	12cc\J	.
4D'\ 4G'\ 4B-'\ 4d'\	12b-/L	.
.	12a/	.
.	12g/J	.
=32	=32	=32
*^	*	*
4G^/ 4A^/ 4c^/	2.D\	12f#/L	>
.	.	12g/	)
.	.	12a/J	)
4A'/ 4c'/	.	4ee-'\)	]
4G'/ 4B-'/	.	4dd'\	p
=33	=33	=33	=33
(4A/	2.D\	(12f#/L	f
.	.	12g/	.
.	.	12a/J	.
4e-'/)	.	4cc'\)	.
4d'/	.	4b-'\	p
=34	=34	=34	=34
4r	2.D\	(12f#/L	>
.	.	12g/	)
.	.	12a/J	)
4c'/	.	4ee-'\)	]
4B-'/	.	4dd'\	p
=35	=35	=35	=35
4r	2.GG\	(12bn\L	f
.	.	12cc\	.
.	.	12dd\J	.
4F#'/	.	4aa-'\)	.
4E'/	.	4gg'\	.
=36	=36	=36	=36
4r	2.GG\	(12b\L	.
.	.	12cc\	.
.	.	12dd\J	.
4D'/	.	4ffn'\)	.
4C'/	.	4ee-'\	.
=37	=37	=37	=37
4r	2.AA\	(12cc#\L	.
.	.	12dd\	.
.	.	12een\J	.
4G'/	.	4bb-'\)	.
4F#'/	.	4aa'\	.
=38	=38	=38	=38
4r	2.AA\	(12cc#\L	.
.	.	12dd\	.
.	.	12ee\J	.
4E'/	.	4gg'\)	.
4D'/ 4F#'/	.	4ff#'\	.
*v	*v	*	*
=39	=39	=39
4D'\	(12ccc\L	.
.	12bb\	.
.	12aa\J)	.
4r	(12aa\L	.
.	12gg\	.
.	12ff#\J)	.
4r	(12ff#\L	.
.	12ee\	.
.	12dd\J	.
=40	=40	=40
2.r	12cc\L	.
.	12b\	.
.	12a\J)	.
.	(12a/L	.
.	12g/	.
.	12f#/J)	.
.	(12f#/L	.
.	12e/	.
.	12d/J)	.
=41	=41	=41
(12c\L	2.r	.
12B\	.	.
12A\J)	.	.
(12A\L	.	.
12G\	.	.
12F#\J)	.	.
(12F#\L	.	.
12E\	.	.
12D\J)	.	.
=42	=42	=42
4D'\ 4A'\ 4d'\	(4.ccc\	.
4F#'\ 4A'\ 4d'\	.	.
.	16bb\LL	.
.	16aa\JJ	.
4G'\ 4B'\ 4d'\	12bb\L	.
.	12aa\	.
.	12gg\J	.
=43	=43	=43
4C'\ 4G'\ 4c'\	4ee\ 4gg\ 4ccc\)	.
4D'\ 4G'\ 4d'\	4dd'\ 4gg'\ 4bb'\	.
4D'\ 4A'\ 4d'\	4dd'\ 4ff#'\ 4aa'\	.
=44	=44	=44
2.GG^/ 2.D^/ 2.G^/	2.b^\ 2.dd^\ 2.gg^\	.
==:|!	==:|!	==:|!
*-	*-	*-
!!!ENC: Craig Stuart Sapp
!!!END: 2005/06/20/
